src/pages/elements/pictograms/images/08_Details_1_do.svg

<?xml version="1.0" encoding="UTF-8"?>
<svg width="288px" height="288px" viewBox="0 0 288 288" version="1.1" xmlns="http://www.w3.org/2000/svg" xmlns:xlink="http://www.w3.org/1999/xlink">
    <!-- Generator: Sketch 52.4 (67378) - http://www.bohemiancoding.com/sketch -->
    <title>Artboard</title>
    <desc>Created with Sketch.</desc>
    <defs>
        <polygon id="path-1" points="0 184 184 184 184 0 0 0"></polygon>
    </defs>
    <g id="Artboard" stroke="none" stroke-width="1" fill="none" fill-rule="evenodd">
        <rect id="Rectangle-3-Copy-45" fill="#FFFFFF" x="0" y="0" width="288" height="288"></rect>
        <g id="Group-11-Copy-2" transform="translate(52.000000, 52.000000)">
            <polygon id="Fill-1" fill="#FFFFFF" points="0 184 184 184 184 0 0 0"></polygon>
            <polygon id="Fill-2" fill="#000000" points="67.6362353 63.0757412 58.7609412 63.0757412 58.7609412 54.2004471 54.8644706 54.2004471 54.8644706 63.0757412 45.9891765 63.0757412 45.9891765 66.9776235 54.8644706 66.9776235 54.8644706 75.8475059 58.7609412 75.8475059 58.7609412 66.9776235 67.6362353 66.9776235"></polygon>
            <g id="Group-10">
                <path d="M149.576847,171.2212 L50.6497882,171.2212 L50.6497882,164.304965 L140.701553,164.304965 C141.778494,164.304965 142.649788,163.433671 142.649788,162.351318 L142.649788,45.2407294 L149.576847,45.2407294 L149.576847,171.2212 Z M39.8262588,153.476024 L129.878024,153.476024 C130.954965,153.476024 131.826259,152.604729 131.826259,151.522376 L131.826259,34.4226118 L138.753318,34.4226118 L138.753318,160.403082 L39.8262588,160.403082 L39.8262588,153.476024 Z M34.4144941,23.5936706 L57.5768471,23.5936706 L57.5768471,27.0517882 C57.5768471,28.1341412 58.4535529,29.0054353 59.5250824,29.0054353 L102.8192,29.0054353 C103.896141,29.0054353 104.767435,28.1341412 104.767435,27.0517882 L104.767435,23.5936706 L127.929788,23.5936706 L127.929788,149.574141 L34.4144941,149.574141 L34.4144941,23.5936706 Z M61.4733176,18.1819059 L70.3486118,18.1819059 C71.4255529,18.1819059 72.2968471,17.3106118 72.2968471,16.2282588 L72.2968471,12.7755529 L90.0474353,12.7755529 L90.0474353,16.2336706 C90.0474353,16.7532 90.2530824,17.2510824 90.6210824,17.6136706 C90.9836706,17.9816706 91.4815529,18.1873176 91.9956706,18.1873176 L100.870965,18.1819059 L100.870965,25.1035529 L61.4733176,25.1035529 L61.4733176,18.1819059 Z M151.525082,41.3388471 L142.649788,41.3388471 L142.649788,32.4689647 C142.649788,31.3920235 141.778494,30.5207294 140.701553,30.5207294 L131.826259,30.5207294 L131.826259,21.6400235 C131.826259,20.5630824 130.954965,19.6917882 129.878024,19.6917882 L104.767435,19.6917882 L104.767435,16.2282588 C104.767435,15.7141412 104.561788,15.2162588 104.1992,14.8482588 C103.8312,14.4856706 103.338729,14.2800235 102.8192,14.2800235 L93.9439059,14.2854353 L93.9439059,10.8219059 C93.9439059,9.74496471 93.0726118,8.87367059 91.9956706,8.87367059 L70.3486118,8.87367059 C69.2770824,8.87367059 68.4003765,9.74496471 68.4003765,10.8219059 L68.4003765,14.2800235 L59.5250824,14.2800235 C58.4535529,14.2800235 57.5768471,15.1513176 57.5768471,16.2282588 L57.5768471,19.6917882 L32.4662588,19.6917882 C31.3947294,19.6917882 30.5180235,20.5630824 30.5180235,21.6400235 L30.5180235,151.522376 C30.5180235,152.604729 31.3947294,153.476024 32.4662588,153.476024 L35.9297882,153.476024 L35.9297882,162.351318 C35.9297882,163.433671 36.8064941,164.304965 37.8780235,164.304965 L46.7533176,164.304965 L46.7533176,173.169435 C46.7533176,174.251788 47.6300235,175.123082 48.7015529,175.123082 L151.525082,175.123082 C152.602024,175.123082 153.473318,174.251788 153.473318,173.169435 L153.473318,43.2870824 C153.473318,42.2101412 152.602024,41.3388471 151.525082,41.3388471 Z" id="Fill-3" fill="#000000"></path>
                <mask id="mask-2" fill="white">
                    <use xlink:href="#path-1"></use>
                </mask>
                <g id="Clip-6"></g>
                <polygon id="Fill-5" fill="#000000" mask="url(#mask-2)" points="73.0534118 56.1524706 116.347529 56.1524706 116.347529 52.2505882 73.0534118 52.2505882"></polygon>
                <polygon id="Fill-7" fill="#000000" mask="url(#mask-2)" points="73.0534118 77.7887059 116.347529 77.7887059 116.347529 73.8868235 73.0534118 73.8868235"></polygon>
                <polygon id="Fill-8" fill="#000000" mask="url(#mask-2)" points="45.9945882 99.4357647 116.347529 99.4357647 116.347529 95.5338824 45.9945882 95.5338824"></polygon>
                <polygon id="Fill-9" fill="#000000" mask="url(#mask-2)" points="45.9945882 121.082824 116.347529 121.082824 116.347529 117.180941 45.9945882 117.180941"></polygon>
            </g>
        </g>
    </g>
</svg>

<svg xmlns="http://www.w3.org/2000/svg" xmlns:xlink="http://www.w3.org/1999/xlink" viewBox="0 0 288 288"><defs><path id="a" d="M0 184h184V0H0z"/></defs><g fill="none" fill-rule="evenodd"><path fill="#FFF" d="M0 0h288v288H0z"/><path fill="#FFF" d="M52 236h184V52H52z"/><path fill="#000" d="M119.636 115.076h-8.875V106.2h-3.897v8.876H97.99v3.902h8.875v8.87h3.897v-8.87h8.875z"/><g transform="translate(52 52)"><path d="M149.577 171.221H50.65v-6.916h90.052a1.948 1.948 0 001.948-1.954V45.241h6.927v125.98zm-109.75-17.745h90.051a1.948 1.948 0 001.948-1.954v-117.1h6.927v125.981H39.826v-6.927zM34.413 23.594h23.163v3.458c0 1.082.877 1.953 1.948 1.953h43.294a1.948 1.948 0 001.948-1.953v-3.458h23.163v125.98H34.414V23.594zm27.06-5.412h8.875a1.948 1.948 0 001.948-1.954v-3.452h17.75v3.458c0 .52.206 1.017.574 1.38.363.368.86.573 1.375.573l8.875-.005v6.922H61.473v-6.922zm90.051 23.157h-8.875v-8.87a1.947 1.947 0 00-1.948-1.948h-8.876V21.64a1.947 1.947 0 00-1.948-1.948h-25.11v-3.464c0-.514-.206-1.012-.569-1.38a1.963 1.963 0 00-1.38-.568l-8.875.005v-3.463a1.947 1.947 0 00-1.948-1.948H70.349a1.95 1.95 0 00-1.949 1.948v3.458h-8.875a1.95 1.95 0 00-1.948 1.948v3.464h-25.11a1.95 1.95 0 00-1.949 1.948v129.882c0 1.083.877 1.954 1.948 1.954h3.464v8.875c0 1.083.876 1.954 1.948 1.954h8.875v8.864c0 1.083.877 1.954 1.949 1.954h102.823a1.948 1.948 0 001.948-1.954V43.287a1.947 1.947 0 00-1.948-1.948z" fill="#000"/><mask id="b" fill="#fff"><use xlink:href="#a"/></mask><path fill="#000" mask="url(#b)" d="M73.053 56.152h43.295v-3.901H73.053zm0 21.637h43.295v-3.902H73.053zM45.995 99.436h70.353v-3.902H45.995zm0 21.647h70.353v-3.902H45.995z"/></g></g></svg>
